X: 51
T:Man of the House, The
R:reel
D:Paddy Keenan: Port an Phiobaire
Z:id:hn-reel-370
M:C|
K:Edor
E2BE GABG|E2BG FDAF|E2BE GABc|1 dBcA BFAF:|2 dBcA BEE2||
|:efge fgaf|gfed edBd|1 e2ge fgaf|gfed Beed:|2 b2af gefd|edBG AGFD||
"Variations:"
|:~E3B GEBG|~E3B AFDF|~E3B GEBc|1 d2cA BFAF:|2 d2cA BEE2||
|:~e3g f2fa|(3gfe fd ed (3Bcd|1 ~e3g ~f2af|gfed Beed:|2 bgaf (3gfe fd|ed
BG AGFD||

